X:1
T:Title
L:1/8
Q:1/4=100
M:4/4
K:Eb
V:1 treble nm="Grand Piano"
V:1
 C2 DD E2 C2 | D2 F2 E4 | C2 F2 FEED | EDC=B, C4 | C2 DD E2 C2 | D2 F2 E4 | C2 F2 FEED | %7
w: ????~???? * * * *|||||||
 EDC=B, C4 | G2 c2 c2 d2 | edc=B c4 | G2 AG F2 A2 | cB A2 G4 | G2 c2 c2 d2 | edc=B c4 | %14
w: |||||||
 G2 AG F2 A2 | cB A2 G4 | GGAG F2 G2 | AGFE D4 | F2 G2 E2 F2 | D2 E2 D2 C2 |] %20
w: ||||||

